X:927
T:Joanie Madden's
S:Learned from Joanie Madden, 20/9/08
N:She learned it from Matt Molloy    
Z:Nigel Gatherer
M:4/4
L:1/8
K:G
b3 a g3 e | dB B2 dega | b3 a g3 e | dBGA BA A2 :|
B3 d edBd | edgd  edBd | (3Bcd ef g3 a | gedB A2 GA |
B3 d edBd | edgd  edBd | (3Bcd ef g3 a | gedB G4 |]
